images/icons/source/split.svg

<svg width="48" height="48" viewBox="0 0 48 48" version="1.1" xmlns="http://www.w3.org/2000/svg" xmlns:xlink="http://www.w3.org/1999/xlink" xmlns:figma="http://www.figma.com/figma/ns">
<title>split</title>
<desc>Created using Figma</desc>
<g id="Canvas" transform="translate(233 -35)" figma:type="canvas">
<mask id="mask0_alpha" mask-type="alpha">
<path d="M -233 35L -185 35L -185 83L -233 83L -233 35Z" fill="#FFFFFF"/>
</mask>
<g id="split" style="mix-blend-mode:normal;" mask="url(#mask0_alpha)" figma:type="frame">
<g id="Vector" style="mix-blend-mode:normal;" figma:type="vector">
<use xlink:href="#path0_fill" transform="translate(-228.79 38)" fill="#3BB75E" style="mix-blend-mode:normal;"/>
<use xlink:href="#path1_fill" transform="translate(-228.79 38)" fill="#3BB75E" style="mix-blend-mode:normal;"/>
<use xlink:href="#path2_fill" transform="translate(-228.79 38)" fill="#3BB75E" style="mix-blend-mode:normal;"/>
</g>
</g>
</g>
<defs>
<path id="path0_fill" fill-rule="evenodd" d="M 1.5867 4.20284C 1.19609 4.59327 1.19594 5.22644 1.58637 5.61705L 2.98545 7.01679C 3.37588 7.4074 4.00905 7.40755 4.39966 7.01712C 4.79028 6.62669 4.79043 5.99352 4.4 5.60291L 3.00092 4.20317C 2.61048 3.81255 1.97732 3.81241 1.5867 4.20284ZM 5.78394 8.40205C 5.39333 8.79248 5.39318 9.42564 5.78361 9.81626L 8.58177 12.6157C 8.9722 13.0063 9.60537 13.0065 9.99598 12.6161C 10.3866 12.2256 10.3867 11.5925 9.99632 11.2018L 7.19816 8.40238C 6.80772 8.01176 6.17456 8.01161 5.78394 8.40205ZM 11.3803 14.001C 10.9896 14.3914 10.9895 15.0246 11.3799 15.4152L 14.1781 18.2147C 14.5685 18.6053 15.2017 18.6054 15.5923 18.215C 15.9829 17.8246 15.9831 17.1914 15.5926 16.8008L 12.7945 14.0013C 12.404 13.6107 11.7709 13.6106 11.3803 14.001ZM 16.9766 19.5999C 16.586 19.9904 16.5858 20.6235 16.9762 21.0141L 19.7744 23.8136C 20.1648 24.2042 20.798 24.2044 21.1886 23.8139C 21.5792 23.4235 21.5794 22.7903 21.189 22.3997L 18.3908 19.6003C 18.0004 19.2096 17.3672 19.2095 16.9766 19.5999ZM 22.5729 25.1989C 22.1823 25.5893 22.1821 26.2225 22.5726 26.6131L 25.3707 29.4126C 25.7612 29.8032 26.3943 29.8033 26.7849 29.4129C 27.1756 29.0225 27.1757 28.3893 26.7853 27.9987L 23.9871 25.1992C 23.5967 24.8086 22.9635 24.8084 22.5729 25.1989ZM 28.1692 30.7978C 27.7786 31.1883 27.7785 31.8214 28.1689 32.212L 30.967 35.0115C 31.3575 35.4021 31.9906 35.4023 32.3813 35.0118C 32.7719 34.6214 32.772 33.9882 32.3816 33.5976L 29.5834 30.7982C 29.193 30.4075 28.5598 30.4074 28.1692 30.7978ZM 33.7655 36.3968C 33.3749 36.7872 33.3748 37.4204 33.7652 37.811L 35.1643 39.2107C 35.5547 39.6013 36.1879 39.6015 36.5785 39.211C 36.9691 38.8206 36.9693 38.1874 36.5788 37.7968L 35.1797 36.3971C 34.7893 36.0065 34.1562 36.0063 33.7655 36.3968Z"/>
<path id="path1_fill" fill-rule="evenodd" d="M 6.19371 27.4545C 6.99391 26.3946 8.58584 26.3946 9.38604 27.4545L 15.1723 35.1184C 16.1671 36.4361 15.2271 38.3235 13.5761 38.3235L 2.00364 38.3235C 0.352614 38.3235 -0.587346 36.4361 0.407481 35.1184L 6.19371 27.4545ZM 7.78987 28.6596L 2.00364 36.3235L 13.5761 36.3235L 7.78987 28.6596Z"/>
<path id="path2_fill" fill-rule="evenodd" d="M 31.7899 16C 35.6559 16 38.7899 12.866 38.7899 9C 38.7899 5.13401 35.6559 2 31.7899 2C 27.9239 2 24.7899 5.13401 24.7899 9C 24.7899 12.866 27.9239 16 31.7899 16ZM 31.7899 18C 36.7604 18 40.7899 13.9706 40.7899 9C 40.7899 4.02944 36.7604 0 31.7899 0C 26.8193 0 22.7899 4.02944 22.7899 9C 22.7899 13.9706 26.8193 18 31.7899 18Z"/>
</defs>
</svg>

<svg width="48" height="48" viewBox="0 0 48 48" xmlns="http://www.w3.org/2000/svg" xmlns:xlink="http://www.w3.org/1999/xlink" xmlns:figma="http://www.figma.com/figma/ns">
    <title>
        split
    </title>
    <desc>
        Created using Figma
    </desc>
    <g transform="translate(233 -35)" figma:type="canvas">
        <mask id="a">
            <path d="M-233 35h48v48h-48V35z" fill="#FFF"/>
        </mask>
        <g style="mix-blend-mode:normal" mask="url(#a)" figma:type="frame">
            <g style="mix-blend-mode:normal" figma:type="vector" transform="translate(-228.79 38)" fill="#3BB75E">
                <use xlink:href="#b" style="mix-blend-mode:normal"/>
                <use xlink:href="#c" style="mix-blend-mode:normal"/>
                <use xlink:href="#d" style="mix-blend-mode:normal"/>
            </g>
        </g>
    </g>
    <defs>
        <path id="b" fill-rule="evenodd" d="M1.587 4.203a1 1 0 0 0 0 1.414l1.398 1.4A1 1 0 0 0 4.4 5.603L3 4.203a1 1 0 0 0-1.413 0zm4.197 4.199a1 1 0 0 0 0 1.414l2.798 2.8a1 1 0 1 0 1.414-1.414l-2.798-2.8a1 1 0 0 0-1.414 0zm5.596 5.599a1 1 0 0 0 0 1.414l2.798 2.8a1 1 0 0 0 1.415-1.414L12.794 14a1 1 0 0 0-1.414 0zm5.597 5.599a1 1 0 0 0 0 1.414l2.797 2.8A1 1 0 1 0 21.19 22.4l-2.798-2.8a1 1 0 0 0-1.414 0zm5.596 5.599a1 1 0 0 0 0 1.414l2.798 2.8a1 1 0 0 0 1.414-1.414l-2.798-2.8a1 1 0 0 0-1.414 0zm5.596 5.599a1 1 0 0 0 0 1.414l2.798 2.8a1 1 0 0 0 1.415-1.414l-2.799-2.8a1 1 0 0 0-1.414 0zm5.597 5.599a1 1 0 0 0 0 1.414l1.398 1.4a1 1 0 1 0 1.415-1.414l-1.4-1.4a1 1 0 0 0-1.413 0z"/>
        <path id="c" fill-rule="evenodd" d="M6.194 27.454a2 2 0 0 1 3.192 0l5.786 7.664c.995 1.318.055 3.206-1.596 3.206H2.004c-1.651 0-2.591-1.888-1.597-3.206l5.787-7.664zM7.79 28.66l-5.786 7.664h11.572L7.79 28.66z"/>
        <path id="d" fill-rule="evenodd" d="M31.79 16a7 7 0 1 0 0-14 7 7 0 0 0 0 14zm0 2a9 9 0 1 0 0-18 9 9 0 0 0 0 18z"/>
    </defs>
</svg>
